X: 39568
T: Ted's Polska
R: waltz
M: 3/4
K: Dminor
|:D2 FE D2|A2 c=B A2|G2 A2 E2|FG Ac =B2|
D2 FE D2|A2 cd ed|c2 =BA GB|A2 DE F2:|
|:G2 G2 A2|=B2 AB cA|G2 G2 A2|FG Ac =B2|
G2 G2 =B2|c2 =BA GB|A2 D2 E2|F2 GA =B2:|

